images/50718360.svg

<?xml version="1.0" encoding="UTF-8"?>
<svg xmlns="http://www.w3.org/2000/svg" xmlns:xlink="http://www.w3.org/1999/xlink" width="300pt" height="300pt" viewBox="0 0 300 300" version="1.1">
<defs>
<g>
<symbol overflow="visible" id="glyph0-0">
<path style="stroke:none;" d="M 0.453125 1.59375 L 0.453125 -6.34375 L 4.953125 -6.34375 L 4.953125 1.59375 Z M 0.953125 1.09375 L 4.453125 1.09375 L 4.453125 -5.84375 L 0.953125 -5.84375 Z M 0.953125 1.09375 "/>
</symbol>
<symbol overflow="visible" id="glyph0-1">
<path style="stroke:none;" d="M 0.890625 -6.5625 L 4.65625 -6.5625 L 4.65625 -5.8125 L 1.765625 -5.8125 L 1.765625 -3.875 L 4.375 -3.875 L 4.375 -3.140625 L 1.765625 -3.140625 L 1.765625 0 L 0.890625 0 Z M 0.890625 -6.5625 "/>
</symbol>
<symbol overflow="visible" id="glyph0-2">
<path style="stroke:none;" d="M 0.890625 -6.5625 L 2.078125 -6.5625 L 4.984375 -1.078125 L 4.984375 -6.5625 L 5.84375 -6.5625 L 5.84375 0 L 4.65625 0 L 1.75 -5.484375 L 1.75 0 L 0.890625 0 Z M 0.890625 -6.5625 "/>
</symbol>
<symbol overflow="visible" id="glyph0-3">
<path style="stroke:none;" d="M 0.890625 -6.5625 L 1.765625 -6.5625 L 1.765625 -3.875 L 5 -3.875 L 5 -6.5625 L 5.890625 -6.5625 L 5.890625 0 L 5 0 L 5 -3.125 L 1.765625 -3.125 L 1.765625 0 L 0.890625 0 Z M 0.890625 -6.5625 "/>
</symbol>
<symbol overflow="visible" id="glyph0-4">
<path style="stroke:none;" d="M 3.546875 -5.953125 C 2.898438 -5.953125 2.382812 -5.710938 2 -5.234375 C 1.625 -4.753906 1.4375 -4.101562 1.4375 -3.28125 C 1.4375 -2.445312 1.625 -1.789062 2 -1.3125 C 2.382812 -0.832031 2.898438 -0.59375 3.546875 -0.59375 C 4.191406 -0.59375 4.703125 -0.832031 5.078125 -1.3125 C 5.453125 -1.789062 5.640625 -2.445312 5.640625 -3.28125 C 5.640625 -4.101562 5.453125 -4.753906 5.078125 -5.234375 C 4.703125 -5.710938 4.191406 -5.953125 3.546875 -5.953125 Z M 3.546875 -6.6875 C 4.460938 -6.6875 5.195312 -6.375 5.75 -5.75 C 6.300781 -5.132812 6.578125 -4.3125 6.578125 -3.28125 C 6.578125 -2.238281 6.300781 -1.410156 5.75 -0.796875 C 5.195312 -0.179688 4.460938 0.125 3.546875 0.125 C 2.617188 0.125 1.878906 -0.179688 1.328125 -0.796875 C 0.773438 -1.410156 0.5 -2.238281 0.5 -3.28125 C 0.5 -4.3125 0.773438 -5.132812 1.328125 -5.75 C 1.878906 -6.375 2.617188 -6.6875 3.546875 -6.6875 Z M 3.546875 -6.6875 "/>
</symbol>
</g>
</defs>
<g id="surface15041">
<rect x="0" y="0" width="300" height="300" style="fill:rgb(100%,100%,100%);fill-opacity:1;stroke:none;"/>
<path style="fill:none;stroke-width:1.2;stroke-linecap:butt;stroke-linejoin:miter;stroke:rgb(20%,80%,80%);stroke-opacity:1;stroke-miterlimit:10;" d="M 79.871094 183.695312 L 78.515625 173.167969 "/>
<path style="fill:none;stroke-width:1.2;stroke-linecap:butt;stroke-linejoin:miter;stroke:rgb(0%,0%,0%);stroke-opacity:1;stroke-miterlimit:10;" d="M 78.515625 173.167969 L 77.15625 162.636719 "/>
<path style=" stroke:none;fill-rule:nonzero;fill:rgb(100%,100%,100%);fill-opacity:1;" d="M 76.871094 178.195312 L 82.871094 178.195312 L 82.871094 189.195312 L 76.871094 189.195312 Z M 76.871094 178.195312 "/>
<g style="fill:rgb(20%,80%,80%);fill-opacity:1;">
  <use xlink:href="#glyph0-1" x="76.871094" y="186.858398"/>
</g>
<path style="fill:none;stroke-width:1.2;stroke-linecap:butt;stroke-linejoin:miter;stroke:rgb(0%,0%,0%);stroke-opacity:1;stroke-miterlimit:10;" d="M 77.15625 162.636719 L 57.5625 154.457031 "/>
<path style="fill:none;stroke-width:1.2;stroke-linecap:butt;stroke-linejoin:miter;stroke:rgb(0%,0%,0%);stroke-opacity:1;stroke-miterlimit:10;" d="M 77.121094 157.207031 L 61.445312 150.664062 "/>
<path style="fill:none;stroke-width:1.2;stroke-linecap:butt;stroke-linejoin:miter;stroke:rgb(0%,0%,0%);stroke-opacity:1;stroke-miterlimit:10;" d="M 94.035156 149.757812 L 77.15625 162.636719 "/>
<path style="fill:none;stroke-width:1.2;stroke-linecap:butt;stroke-linejoin:miter;stroke:rgb(0%,0%,0%);stroke-opacity:1;stroke-miterlimit:10;" d="M 57.5625 154.457031 L 54.84375 133.398438 "/>
<path style="fill:none;stroke-width:1.2;stroke-linecap:butt;stroke-linejoin:miter;stroke:rgb(0%,0%,0%);stroke-opacity:1;stroke-miterlimit:10;" d="M 54.84375 133.398438 L 45.046875 129.308594 "/>
<path style="fill:none;stroke-width:1.2;stroke-linecap:butt;stroke-linejoin:miter;stroke:rgb(20%,80%,80%);stroke-opacity:1;stroke-miterlimit:10;" d="M 45.046875 129.308594 L 35.25 125.222656 "/>
<path style="fill:none;stroke-width:1.2;stroke-linecap:butt;stroke-linejoin:miter;stroke:rgb(0%,0%,0%);stroke-opacity:1;stroke-miterlimit:10;" d="M 54.84375 133.398438 L 71.726562 120.519531 "/>
<path style="fill:none;stroke-width:1.2;stroke-linecap:butt;stroke-linejoin:miter;stroke:rgb(0%,0%,0%);stroke-opacity:1;stroke-miterlimit:10;" d="M 59.5625 136.082031 L 73.070312 125.777344 "/>
<path style=" stroke:none;fill-rule:nonzero;fill:rgb(100%,100%,100%);fill-opacity:1;" d="M 29.25 119.722656 L 35.25 119.722656 L 35.25 130.722656 L 29.25 130.722656 Z M 29.25 119.722656 "/>
<g style="fill:rgb(20%,80%,80%);fill-opacity:1;">
  <use xlink:href="#glyph0-1" x="29.25" y="128.385742"/>
</g>
<path style="fill:none;stroke-width:1.2;stroke-linecap:butt;stroke-linejoin:miter;stroke:rgb(0%,0%,0%);stroke-opacity:1;stroke-miterlimit:10;" d="M 71.726562 120.519531 L 91.320312 128.695312 "/>
<path style="fill:none;stroke-width:1.2;stroke-linecap:butt;stroke-linejoin:miter;stroke:rgb(0%,0%,0%);stroke-opacity:1;stroke-miterlimit:10;" d="M 91.320312 128.695312 L 94.035156 149.757812 "/>
<path style="fill:none;stroke-width:1.2;stroke-linecap:butt;stroke-linejoin:miter;stroke:rgb(0%,0%,0%);stroke-opacity:1;stroke-miterlimit:10;" d="M 86.636719 131.441406 L 88.808594 148.289062 "/>
<path style="fill:none;stroke-width:1.2;stroke-linecap:butt;stroke-linejoin:miter;stroke:rgb(0%,0%,0%);stroke-opacity:1;stroke-miterlimit:10;" d="M 94.035156 149.757812 L 103.835938 153.84375 "/>
<path style="fill:none;stroke-width:1.2;stroke-linecap:butt;stroke-linejoin:miter;stroke:rgb(0%,0%,100%);stroke-opacity:1;stroke-miterlimit:10;" d="M 103.835938 153.84375 L 113.632812 157.933594 "/>
<path style="fill:none;stroke-width:1.2;stroke-linecap:butt;stroke-linejoin:miter;stroke:rgb(0%,0%,100%);stroke-opacity:1;stroke-miterlimit:10;" d="M 113.632812 157.933594 L 122.070312 151.492188 "/>
<path style="fill:none;stroke-width:1.2;stroke-linecap:butt;stroke-linejoin:miter;stroke:rgb(0%,0%,0%);stroke-opacity:1;stroke-miterlimit:10;" d="M 122.070312 151.492188 L 130.511719 145.054688 "/>
<path style=" stroke:none;fill-rule:nonzero;fill:rgb(100%,100%,100%);fill-opacity:1;" d="M 106.632812 152.433594 L 120.632812 152.433594 L 120.632812 163.433594 L 106.632812 163.433594 Z M 106.632812 152.433594 "/>
<g style="fill:rgb(0%,0%,100%);fill-opacity:1;">
  <use xlink:href="#glyph0-2" x="106.632812" y="161.09668"/>
  <use xlink:href="#glyph0-3" x="113.610352" y="161.09668"/>
</g>
<path style="fill:none;stroke-width:1.2;stroke-linecap:butt;stroke-linejoin:miter;stroke:rgb(0%,0%,0%);stroke-opacity:1;stroke-miterlimit:10;" d="M 130.511719 145.054688 L 130.261719 134.4375 "/>
<path style="fill:none;stroke-width:1.2;stroke-linecap:butt;stroke-linejoin:miter;stroke:rgb(0%,0%,100%);stroke-opacity:1;stroke-miterlimit:10;" d="M 130.261719 134.4375 L 130.011719 123.824219 "/>
<path style="fill:none;stroke-width:1.2;stroke-linecap:butt;stroke-linejoin:miter;stroke:rgb(0%,0%,0%);stroke-opacity:1;stroke-miterlimit:10;" d="M 135.457031 142.8125 L 135.257812 134.320312 "/>
<path style="fill:none;stroke-width:1.2;stroke-linecap:butt;stroke-linejoin:miter;stroke:rgb(0%,0%,100%);stroke-opacity:1;stroke-miterlimit:10;" d="M 135.257812 134.320312 L 135.058594 125.832031 "/>
<path style="fill:none;stroke-width:1.2;stroke-linecap:butt;stroke-linejoin:miter;stroke:rgb(0%,0%,100%);stroke-opacity:1;stroke-miterlimit:10;" d="M 150.855469 151.136719 L 140.683594 148.09375 "/>
<path style="fill:none;stroke-width:1.2;stroke-linecap:butt;stroke-linejoin:miter;stroke:rgb(0%,0%,0%);stroke-opacity:1;stroke-miterlimit:10;" d="M 140.683594 148.09375 L 130.511719 145.054688 "/>
<path style="fill:none;stroke-width:1.2;stroke-linecap:butt;stroke-linejoin:miter;stroke:rgb(0%,0%,100%);stroke-opacity:1;stroke-miterlimit:10;" d="M 130.011719 123.824219 L 140.03125 120.308594 "/>
<path style="fill:none;stroke-width:1.2;stroke-linecap:butt;stroke-linejoin:miter;stroke:rgb(0%,0%,0%);stroke-opacity:1;stroke-miterlimit:10;" d="M 140.03125 120.308594 L 150.046875 116.789062 "/>
<path style=" stroke:none;fill-rule:nonzero;fill:rgb(100%,100%,100%);fill-opacity:1;" d="M 127.011719 118.324219 L 134.011719 118.324219 L 134.011719 129.324219 L 127.011719 129.324219 Z M 127.011719 118.324219 "/>
<g style="fill:rgb(0%,0%,100%);fill-opacity:1;">
  <use xlink:href="#glyph0-2" x="127.011719" y="126.987305"/>
</g>
<path style="fill:none;stroke-width:1.2;stroke-linecap:butt;stroke-linejoin:miter;stroke:rgb(0%,0%,0%);stroke-opacity:1;stroke-miterlimit:10;" d="M 150.046875 116.789062 L 162.929688 133.671875 "/>
<path style="fill:none;stroke-width:1.2;stroke-linecap:butt;stroke-linejoin:miter;stroke:rgb(0%,0%,0%);stroke-opacity:1;stroke-miterlimit:10;" d="M 155.308594 115.449219 L 165.613281 128.953125 "/>
<path style="fill:none;stroke-width:1.2;stroke-linecap:butt;stroke-linejoin:miter;stroke:rgb(0%,0%,0%);stroke-opacity:1;stroke-miterlimit:10;" d="M 158.226562 97.195312 L 150.046875 116.789062 "/>
<path style="fill:none;stroke-width:1.2;stroke-linecap:butt;stroke-linejoin:miter;stroke:rgb(0%,0%,0%);stroke-opacity:1;stroke-miterlimit:10;" d="M 162.929688 133.671875 L 173.457031 132.3125 "/>
<path style="fill:none;stroke-width:1.2;stroke-linecap:butt;stroke-linejoin:miter;stroke:rgb(0%,0%,100%);stroke-opacity:1;stroke-miterlimit:10;" d="M 173.457031 132.3125 L 183.988281 130.957031 "/>
<path style="fill:none;stroke-width:1.2;stroke-linecap:butt;stroke-linejoin:miter;stroke:rgb(0%,0%,0%);stroke-opacity:1;stroke-miterlimit:10;" d="M 162.929688 133.671875 L 156.890625 142.40625 "/>
<path style="fill:none;stroke-width:1.2;stroke-linecap:butt;stroke-linejoin:miter;stroke:rgb(0%,0%,100%);stroke-opacity:1;stroke-miterlimit:10;" d="M 156.890625 142.40625 L 150.855469 151.136719 "/>
<path style="fill:none;stroke-width:1.2;stroke-linecap:butt;stroke-linejoin:miter;stroke:rgb(0%,0%,100%);stroke-opacity:1;stroke-miterlimit:10;" d="M 183.988281 130.957031 L 188.078125 121.15625 "/>
<path style="fill:none;stroke-width:1.2;stroke-linecap:butt;stroke-linejoin:miter;stroke:rgb(0%,0%,0%);stroke-opacity:1;stroke-miterlimit:10;" d="M 188.078125 121.15625 L 192.167969 111.359375 "/>
<path style="fill:none;stroke-width:1.2;stroke-linecap:butt;stroke-linejoin:miter;stroke:rgb(0%,0%,100%);stroke-opacity:1;stroke-miterlimit:10;" d="M 180.195312 127.070312 L 183.464844 119.234375 "/>
<path style="fill:none;stroke-width:1.2;stroke-linecap:butt;stroke-linejoin:miter;stroke:rgb(0%,0%,0%);stroke-opacity:1;stroke-miterlimit:10;" d="M 183.464844 119.234375 L 186.738281 111.394531 "/>
<path style=" stroke:none;fill-rule:nonzero;fill:rgb(100%,100%,100%);fill-opacity:1;" d="M 180.988281 125.457031 L 187.988281 125.457031 L 187.988281 136.457031 L 180.988281 136.457031 Z M 180.988281 125.457031 "/>
<g style="fill:rgb(0%,0%,100%);fill-opacity:1;">
  <use xlink:href="#glyph0-2" x="180.988281" y="134.120117"/>
</g>
<path style="fill:none;stroke-width:1.2;stroke-linecap:butt;stroke-linejoin:miter;stroke:rgb(0%,0%,0%);stroke-opacity:1;stroke-miterlimit:10;" d="M 192.167969 111.359375 L 185.726562 102.921875 "/>
<path style="fill:none;stroke-width:1.2;stroke-linecap:butt;stroke-linejoin:miter;stroke:rgb(0%,0%,100%);stroke-opacity:1;stroke-miterlimit:10;" d="M 185.726562 102.921875 L 179.285156 94.480469 "/>
<path style="fill:none;stroke-width:1.2;stroke-linecap:butt;stroke-linejoin:miter;stroke:rgb(0%,0%,0%);stroke-opacity:1;stroke-miterlimit:10;" d="M 192.167969 111.359375 L 202.695312 110.003906 "/>
<path style="fill:none;stroke-width:1.2;stroke-linecap:butt;stroke-linejoin:miter;stroke:rgb(0%,0%,100%);stroke-opacity:1;stroke-miterlimit:10;" d="M 202.695312 110.003906 L 213.226562 108.644531 "/>
<path style="fill:none;stroke-width:1.2;stroke-linecap:butt;stroke-linejoin:miter;stroke:rgb(0%,0%,100%);stroke-opacity:1;stroke-miterlimit:10;" d="M 179.285156 94.480469 L 168.753906 95.835938 "/>
<path style="fill:none;stroke-width:1.2;stroke-linecap:butt;stroke-linejoin:miter;stroke:rgb(0%,0%,0%);stroke-opacity:1;stroke-miterlimit:10;" d="M 168.753906 95.835938 L 158.226562 97.195312 "/>
<path style="fill:none;stroke-width:1.2;stroke-linecap:butt;stroke-linejoin:miter;stroke:rgb(0%,0%,100%);stroke-opacity:1;stroke-miterlimit:10;" d="M 177.816406 99.707031 L 169.394531 100.792969 "/>
<path style="fill:none;stroke-width:1.2;stroke-linecap:butt;stroke-linejoin:miter;stroke:rgb(0%,0%,0%);stroke-opacity:1;stroke-miterlimit:10;" d="M 169.394531 100.792969 L 160.96875 101.878906 "/>
<path style=" stroke:none;fill-rule:nonzero;fill:rgb(100%,100%,100%);fill-opacity:1;" d="M 176.285156 88.980469 L 183.285156 88.980469 L 183.285156 99.980469 L 176.285156 99.980469 Z M 176.285156 88.980469 "/>
<g style="fill:rgb(0%,0%,100%);fill-opacity:1;">
  <use xlink:href="#glyph0-2" x="176.285156" y="97.643555"/>
</g>
<path style="fill:none;stroke-width:1.2;stroke-linecap:butt;stroke-linejoin:miter;stroke:rgb(0%,0%,100%);stroke-opacity:1;stroke-miterlimit:10;" d="M 213.226562 108.644531 L 219.667969 117.085938 "/>
<path style="fill:none;stroke-width:1.2;stroke-linecap:butt;stroke-linejoin:miter;stroke:rgb(0%,0%,0%);stroke-opacity:1;stroke-miterlimit:10;" d="M 219.667969 117.085938 L 226.105469 125.527344 "/>
<path style=" stroke:none;fill-rule:nonzero;fill:rgb(100%,100%,100%);fill-opacity:1;" d="M 206.226562 103.144531 L 220.226562 103.144531 L 220.226562 114.144531 L 206.226562 114.144531 Z M 206.226562 103.144531 "/>
<g style="fill:rgb(0%,0%,100%);fill-opacity:1;">
  <use xlink:href="#glyph0-2" x="206.226562" y="111.807617"/>
  <use xlink:href="#glyph0-3" x="213.204102" y="111.807617"/>
</g>
<path style="fill:none;stroke-width:1.2;stroke-linecap:butt;stroke-linejoin:miter;stroke:rgb(0%,0%,0%);stroke-opacity:1;stroke-miterlimit:10;" d="M 226.105469 125.527344 L 217.929688 145.121094 "/>
<path style="fill:none;stroke-width:1.2;stroke-linecap:butt;stroke-linejoin:miter;stroke:rgb(0%,0%,0%);stroke-opacity:1;stroke-miterlimit:10;" d="M 247.164062 122.808594 L 226.105469 125.527344 "/>
<path style="fill:none;stroke-width:1.2;stroke-linecap:butt;stroke-linejoin:miter;stroke:rgb(0%,0%,0%);stroke-opacity:1;stroke-miterlimit:10;" d="M 217.929688 145.121094 L 230.808594 162 "/>
<path style="fill:none;stroke-width:1.2;stroke-linecap:butt;stroke-linejoin:miter;stroke:rgb(0%,0%,0%);stroke-opacity:1;stroke-miterlimit:10;" d="M 230.808594 162 L 251.867188 159.285156 "/>
<path style="fill:none;stroke-width:1.2;stroke-linecap:butt;stroke-linejoin:miter;stroke:rgb(0%,0%,0%);stroke-opacity:1;stroke-miterlimit:10;" d="M 251.867188 159.285156 L 258.308594 167.726562 "/>
<path style="fill:none;stroke-width:1.2;stroke-linecap:butt;stroke-linejoin:miter;stroke:rgb(100%,0%,0%);stroke-opacity:1;stroke-miterlimit:10;" d="M 258.308594 167.726562 L 264.75 176.167969 "/>
<path style="fill:none;stroke-width:1.2;stroke-linecap:butt;stroke-linejoin:miter;stroke:rgb(0%,0%,0%);stroke-opacity:1;stroke-miterlimit:10;" d="M 251.867188 159.285156 L 260.046875 139.691406 "/>
<path style=" stroke:none;fill-rule:nonzero;fill:rgb(100%,100%,100%);fill-opacity:1;" d="M 257.75 170.667969 L 272.75 170.667969 L 272.75 181.667969 L 257.75 181.667969 Z M 257.75 170.667969 "/>
<g style="fill:rgb(100%,0%,0%);fill-opacity:1;">
  <use xlink:href="#glyph0-4" x="257.75" y="179.331055"/>
  <use xlink:href="#glyph0-3" x="265.091797" y="179.331055"/>
</g>
<path style="fill:none;stroke-width:1.2;stroke-linecap:butt;stroke-linejoin:miter;stroke:rgb(0%,0%,0%);stroke-opacity:1;stroke-miterlimit:10;" d="M 260.046875 139.691406 L 247.164062 122.808594 "/>
<path style="fill:none;stroke-width:1.2;stroke-linecap:butt;stroke-linejoin:miter;stroke:rgb(0%,0%,100%);stroke-opacity:1;stroke-miterlimit:10;" d="M 150.855469 151.136719 L 154.371094 161.15625 "/>
<path style="fill:none;stroke-width:1.2;stroke-linecap:butt;stroke-linejoin:miter;stroke:rgb(0%,0%,0%);stroke-opacity:1;stroke-miterlimit:10;" d="M 154.371094 161.15625 L 157.890625 171.171875 "/>
<path style=" stroke:none;fill-rule:nonzero;fill:rgb(100%,100%,100%);fill-opacity:1;" d="M 147.855469 145.636719 L 154.855469 145.636719 L 154.855469 156.636719 L 147.855469 156.636719 Z M 147.855469 145.636719 "/>
<g style="fill:rgb(0%,0%,100%);fill-opacity:1;">
  <use xlink:href="#glyph0-2" x="147.855469" y="154.299805"/>
</g>
<path style="fill:none;stroke-width:1.2;stroke-linecap:butt;stroke-linejoin:miter;stroke:rgb(0%,0%,0%);stroke-opacity:1;stroke-miterlimit:10;" d="M 157.890625 171.171875 L 178.234375 177.257812 "/>
<path style="fill:none;stroke-width:1.2;stroke-linecap:butt;stroke-linejoin:miter;stroke:rgb(0%,0%,0%);stroke-opacity:1;stroke-miterlimit:10;" d="M 145.816406 188.640625 L 157.890625 171.171875 "/>
<path style="fill:none;stroke-width:1.2;stroke-linecap:butt;stroke-linejoin:miter;stroke:rgb(0%,0%,0%);stroke-opacity:1;stroke-miterlimit:10;" d="M 178.234375 177.257812 L 178.730469 198.484375 "/>
<path style="fill:none;stroke-width:1.2;stroke-linecap:butt;stroke-linejoin:miter;stroke:rgb(0%,0%,0%);stroke-opacity:1;stroke-miterlimit:10;" d="M 178.730469 198.484375 L 158.695312 205.519531 "/>
<path style="fill:none;stroke-width:1.2;stroke-linecap:butt;stroke-linejoin:miter;stroke:rgb(0%,0%,0%);stroke-opacity:1;stroke-miterlimit:10;" d="M 158.695312 205.519531 L 145.816406 188.640625 "/>
</g>
</svg>

<svg xmlns="http://www.w3.org/2000/svg" xmlns:xlink="http://www.w3.org/1999/xlink" width="300pt" height="300pt" viewBox="0 0 300 300"><defs><symbol overflow="visible"><path d="M.453 1.594v-7.938h4.5v7.938zm.5-.5h3.5v-6.938h-3.5zm0 0"/></symbol><symbol overflow="visible" id="a"><path d="M.89-6.563h3.766v.75h-2.89v1.938h2.61v.734h-2.61V0H.89zm0 0"/></symbol><symbol overflow="visible" id="b"><path d="M.89-6.563H2.08l2.906 5.485v-5.484h.86V0H4.656L1.75-5.484V0H.89zm0 0"/></symbol><symbol overflow="visible" id="c"><path d="M.89-6.563h.876v2.688H5v-2.688h.89V0H5v-3.125H1.766V0H.89zm0 0"/></symbol><symbol overflow="visible" id="d"><path d="M3.547-5.953c-.65 0-1.164.242-1.547.72-.375.48-.563 1.13-.563 1.952 0 .835.188 1.49.563 1.967.383.48.898.72 1.547.72.644 0 1.156-.24 1.53-.72.376-.476.564-1.132.564-1.968 0-.822-.187-1.474-.562-1.954-.375-.477-.887-.72-1.53-.72zm0-.734c.914 0 1.648.312 2.203.937.55.617.828 1.438.828 2.47 0 1.042-.277 1.87-.828 2.483-.555.617-1.29.922-2.203.922-.93 0-1.668-.305-2.22-.922C.774-1.41.5-2.237.5-3.28c0-1.033.273-1.853.828-2.47.55-.625 1.29-.938 2.22-.938zm0 0"/></symbol></defs><g><path fill="#fff" d="M0 0h300v300H0z"/><path d="M79.87 183.695l-1.354-10.527" stroke-width="1.2" stroke="#3cc" stroke-miterlimit="10" fill="none"/><path d="M78.516 173.168l-1.36-10.53" stroke-width="1.2" stroke="#000" stroke-miterlimit="10" fill="none"/><path d="M76.87 178.195h6v11h-6zm0 0" fill="#fff"/><use xlink:href="#a" x="76.871" y="186.858" fill="#3cc"/><path d="M77.156 162.637l-19.594-8.18M77.12 157.207l-15.675-6.543M94.035 149.758l-16.88 12.88M57.563 154.457l-2.72-21.06M54.844 133.398l-9.797-4.09" stroke-width="1.2" stroke="#000" stroke-miterlimit="10" fill="none"/><path d="M45.047 129.31l-9.797-4.087" stroke-width="1.2" stroke="#3cc" stroke-miterlimit="10" fill="none"/><path d="M54.844 133.398l16.883-12.878M59.563 136.082l13.507-10.305" stroke-width="1.2" stroke="#000" stroke-miterlimit="10" fill="none"/><path d="M29.25 119.723h6v11h-6zm0 0" fill="#fff"/><use xlink:href="#a" x="29.25" y="128.386" fill="#3cc"/><path d="M71.727 120.52l19.593 8.175M91.32 128.695l2.715 21.063M86.637 131.44l2.172 16.85M94.035 149.758l9.8 4.086" stroke-width="1.2" stroke="#000" stroke-miterlimit="10" fill="none"/><path d="M103.836 153.844l9.797 4.09M113.633 157.934l8.437-6.442" stroke-width="1.2" stroke="#00f" stroke-miterlimit="10" fill="none"/><path d="M122.07 151.492l8.442-6.437" stroke-width="1.2" stroke="#000" stroke-miterlimit="10" fill="none"/><path d="M106.633 152.434h14v11h-14zm0 0" fill="#fff"/><g fill="#00f"><use xlink:href="#b" x="106.633" y="161.097"/><use xlink:href="#c" x="113.61" y="161.097"/></g><path d="M130.512 145.055l-.25-10.618" stroke-width="1.2" stroke="#000" stroke-miterlimit="10" fill="none"/><path d="M130.262 134.438l-.25-10.614" stroke-width="1.2" stroke="#00f" stroke-miterlimit="10" fill="none"/><path d="M135.457 142.813l-.2-8.493" stroke-width="1.2" stroke="#000" stroke-miterlimit="10" fill="none"/><path d="M135.258 134.32l-.2-8.488M150.855 151.137l-10.17-3.043" stroke-width="1.2" stroke="#00f" stroke-miterlimit="10" fill="none"/><path d="M140.684 148.094l-10.172-3.04" stroke-width="1.2" stroke="#000" stroke-miterlimit="10" fill="none"/><path d="M130.012 123.824l10.02-3.515" stroke-width="1.2" stroke="#00f" stroke-miterlimit="10" fill="none"/><path d="M140.03 120.31l10.017-3.52" stroke-width="1.2" stroke="#000" stroke-miterlimit="10" fill="none"/><path d="M127.012 118.324h7v11h-7zm0 0" fill="#fff"/><use xlink:href="#b" x="127.012" y="126.987" fill="#00f"/><path d="M150.047 116.79l12.883 16.882M155.31 115.45l10.303 13.503M158.227 97.195l-8.18 19.594M162.93 133.672l10.527-1.36" stroke-width="1.2" stroke="#000" stroke-miterlimit="10" fill="none"/><path d="M173.457 132.313l10.53-1.356" stroke-width="1.2" stroke="#00f" stroke-miterlimit="10" fill="none"/><path d="M162.93 133.672l-6.04 8.734" stroke-width="1.2" stroke="#000" stroke-miterlimit="10" fill="none"/><path d="M156.89 142.406l-6.035 8.73M183.988 130.957l4.09-9.8" stroke-width="1.2" stroke="#00f" stroke-miterlimit="10" fill="none"/><path d="M188.078 121.156l4.09-9.797" stroke-width="1.2" stroke="#000" stroke-miterlimit="10" fill="none"/><path d="M180.195 127.07l3.27-7.836" stroke-width="1.2" stroke="#00f" stroke-miterlimit="10" fill="none"/><path d="M183.465 119.234l3.273-7.84" stroke-width="1.2" stroke="#000" stroke-miterlimit="10" fill="none"/><path d="M180.988 125.457h7v11h-7zm0 0" fill="#fff"/><use xlink:href="#b" x="180.988" y="134.12" fill="#00f"/><path d="M192.168 111.36l-6.44-8.438" stroke-width="1.2" stroke="#000" stroke-miterlimit="10" fill="none"/><path d="M185.727 102.922l-6.442-8.442" stroke-width="1.2" stroke="#00f" stroke-miterlimit="10" fill="none"/><path d="M192.168 111.36l10.527-1.356" stroke-width="1.2" stroke="#000" stroke-miterlimit="10" fill="none"/><path d="M202.695 110.004l10.532-1.36M179.285 94.48l-10.53 1.356" stroke-width="1.2" stroke="#00f" stroke-miterlimit="10" fill="none"/><path d="M168.754 95.836l-10.527 1.36" stroke-width="1.2" stroke="#000" stroke-miterlimit="10" fill="none"/><path d="M177.816 99.707l-8.42 1.086" stroke-width="1.2" stroke="#00f" stroke-miterlimit="10" fill="none"/><path d="M169.395 100.793l-8.426 1.086" stroke-width="1.2" stroke="#000" stroke-miterlimit="10" fill="none"/><path d="M176.285 88.98h7v11h-7zm0 0" fill="#fff"/><use xlink:href="#b" x="176.285" y="97.644" fill="#00f"/><path d="M213.227 108.645l6.44 8.44" stroke-width="1.2" stroke="#00f" stroke-miterlimit="10" fill="none"/><path d="M219.668 117.086l6.437 8.44" stroke-width="1.2" stroke="#000" stroke-miterlimit="10" fill="none"/><path d="M206.227 103.145h14v11h-14zm0 0" fill="#fff"/><g fill="#00f"><use xlink:href="#b" x="206.227" y="111.808"/><use xlink:href="#c" x="213.204" y="111.808"/></g><path d="M226.105 125.527l-8.175 19.594M247.164 122.81l-21.06 2.717M217.93 145.12L230.81 162M230.81 162l21.057-2.715M251.867 159.285l6.442 8.442" stroke-width="1.2" stroke="#000" stroke-miterlimit="10" fill="none"/><path d="M258.31 167.727l6.44 8.44" stroke-width="1.2" stroke="#f00" stroke-miterlimit="10" fill="none"/><path d="M251.867 159.285l8.18-19.594" stroke-width="1.2" stroke="#000" stroke-miterlimit="10" fill="none"/><path d="M257.75 170.668h15v11h-15zm0 0" fill="#fff"/><g fill="#f00"><use xlink:href="#d" x="257.75" y="179.331"/><use xlink:href="#c" x="265.092" y="179.331"/></g><path d="M260.047 139.69l-12.883-16.88" stroke-width="1.2" stroke="#000" stroke-miterlimit="10" fill="none"/><path d="M150.855 151.137l3.516 10.02" stroke-width="1.2" stroke="#00f" stroke-miterlimit="10" fill="none"/><path d="M154.37 161.156l3.52 10.016" stroke-width="1.2" stroke="#000" stroke-miterlimit="10" fill="none"/><path d="M147.855 145.637h7v11h-7zm0 0" fill="#fff"/><use xlink:href="#b" x="147.855" y="154.3" fill="#00f"/><path d="M157.89 171.172l20.344 6.086M145.816 188.64l12.075-17.468M178.234 177.258l.496 21.226M178.73 198.484l-20.035 7.036M158.695 205.52l-12.88-16.88" stroke-width="1.2" stroke="#000" stroke-miterlimit="10" fill="none"/></g></svg>
